X:1
T:Hughie the Graeme
B:Bruce and Stokoe,  Northumbrian Minstrelsy, Newcastle-Upon Tyne, 188(reissued Llanerch)
M:3/4     %Meter
L:1/8     %
K:A
B,F F2 G F |E F G2 G A |(AG) F2 (FG) |c B e3
w:Gude Lord Scroope's to the hunt-ing gone, He has rid-*den o'er_ moss and muir
e |f d e3 c |B/ B/ G F2 (GB) |c f e3 c |B G F3 z |]
w:And he has grip-pet Hugh-ie the Graeme, For_ steal-ing o' the Bish-op's mare
